X: 10501
Q: "Andantino"
M: 6/8
L: 1/8
K: G
d2d {e}d{c}B {A}G | FEz g2e | dBG AdF | G3 z2D |
d2d (e/d/)(c/B/)(A/G/) | FEz Hg3 z/{GAB} {~cd} {~e3f} {g4^f4g4f4Hg4} e | dBG AdF | G3 z2 |]


